X:1
T:O Lord, that heaven (Ps 123)
T:Eduard Blanckes
T:Source : The Whole Book of Psalms---London---Th.Est(e)---1592. Editor : André Vierendeels (14/09/16).
T:O Lord, that heaven (Ps 123)
T:©
C:Eduard Blanckes
Z:©
%%score [ 1 [ 2 3 ] 4 ]
L:1/8
Q:1/4=120
M:2/2
K:F
V:1 treble nm="Soprano" snm="S"
V:2 treble-8 nm="Tenor 1" snm="T 1"
V:3 treble-8 nm="Tenor 2" snm="T 2"
V:4 bass nm="Bass" snm="B"
V:1
 F2 F4 E2 | F2 A2 G2 F2 |[M:2/4] F4 ||[M:2/2] F2 F4 E2 | F2 F2 E4 || E4 E2 F2 | E2 A2 G2 G2 | %7
w: O Lord, that|hea- ven doest pos-|sesse,|I lift mine|eyes to thee,|even as the|ser- vant lif- ted|
[M:2/4] A4 ||[M:2/2] c4 B2 A2 | G2 G2 !fermata!F4 |] %10
w: his,|his mis- ters|hands to see.|
V:2
 A2 c4 c2 | c2 f2 _e2 c2 |[M:2/4] d4 ||[M:2/2] d2 c4 c2 | A2 =B2 c4 || c4 c2 c2 | c2 c2 d2 c2 | %7
w: O Lord, that|hea- ven doest pos-|sesse,|I lift mine|eyes to thee,|even as the|ser- vant lif- ted|
[M:2/4] c4 ||[M:2/2] f4 B2 c2 | d2 c2 !fermata!A4 |] %10
w: his,|his mis- ters|hands to see.|
V:3
 F2 A4 G2 | A2 F2 G2 A2 |[M:2/4] B4 ||[M:2/2] B2 A4 G2 | F2 D2 G4 || G4 G2 A2 | G2 F2 F2 E2 | %7
w: O Lord, that|hea- ven doest pos-|sesse,|I lift mine|eyes to thee,|even as the|ser- vant lif- ted|
[M:2/4] F4 ||[M:2/2] A4 G2 F2 | F2 E2 !fermata!F4 |] %10
w: his,|his mis- ters|hands to see.|
V:4
 F,,2 F,4 D,2 | F,2 D,2 _E,2 F,2 |[M:2/4] B,,4 ||[M:2/2] B,,2 F,4 C,2 | D,2 D,2 C,4 || %5
w: O Lord, that|hea- ven doest pos-|sesse,|I lift mine|eyes to thee,|
 C,4 C,2 F,,2 | C,2 A,,2 B,,2 C,2 |[M:2/4] F,,4 ||[M:2/2] F,,4 G,,2 A,,2 | %9
w: even as the|ser- vant lif- ted|his,|his mis- ters|
 B,,2 C,2 !fermata!F,,4 |] %10
w: hands to see.|

